Sources/FrostedUI/Resources/Icons.xcassets/listNumber16.imageset/list-number-16.svg

<svg width="16" height="16" viewBox="0 0 16 16" fill="none" xmlns="http://www.w3.org/2000/svg" data-fui-icon="true">
  <path
    d="M3.73926 8.74926C4.6391 8.74927 5.55737 9.40349 5.55762 10.426C5.55747 11.0007 5.26926 11.4226 4.96094 11.7131C4.81275 11.8527 4.64496 11.9754 4.47949 12.0832H5C5.41408 12.0832 5.74978 12.4192 5.75 12.8332C5.74982 13.2473 5.41411 13.5832 5 13.5832H2.5C2.11161 13.5832 1.79223 13.2877 1.75391 12.9094L1.75 12.8332C1.75016 12.2556 2.09501 11.8631 2.38281 11.6252C2.66277 11.3939 3.02437 11.1992 3.28418 11.052C3.58175 10.8834 3.79189 10.7538 3.93262 10.6213C4.05592 10.5051 4.05761 10.451 4.05762 10.426C4.05754 10.4148 4.0542 10.3807 4.00391 10.3372C3.95143 10.2918 3.8598 10.2493 3.73926 10.2493C3.62962 10.2493 3.49541 10.2954 3.36035 10.3743C3.29823 10.4106 3.24748 10.4476 3.21387 10.4739C3.19767 10.4865 3.18561 10.4961 3.17969 10.5012L3.18066 10.5002C3.17791 10.497 3.14079 10.4573 2.66699 9.95434C2.15291 9.40864 2.15218 9.40762 2.15234 9.40746H2.15332V9.40649L2.15527 9.40551C2.15636 9.40447 2.15788 9.4028 2.15918 9.4016C2.16186 9.39913 2.16535 9.39606 2.16895 9.39281C2.17642 9.38604 2.18595 9.37722 2.19727 9.36742C2.22012 9.34764 2.25125 9.32182 2.28906 9.29223C2.36434 9.23334 2.47167 9.15641 2.60352 9.07934C2.85714 8.93114 3.25918 8.74926 3.73926 8.74926ZM13.5 10.4163C13.9141 10.4163 14.2498 10.7522 14.25 11.1663C14.25 11.5805 13.9142 11.9163 13.5 11.9163H7.83301C7.41894 11.9161 7.08301 11.5804 7.08301 11.1663C7.08323 10.7523 7.41908 10.4164 7.83301 10.4163H13.5ZM3.18066 10.5002C2.87915 10.784 2.40504 10.7694 2.12109 10.468C1.83735 10.1665 1.85106 9.6924 2.15234 9.40844L3.18066 10.5002ZM3.73633 2.55199C3.9653 2.39182 4.26478 2.3723 4.5127 2.50121C4.76063 2.6303 4.91684 2.88675 4.91699 3.16625V6.49926C4.91699 6.91336 4.58106 7.24908 4.16699 7.24926C3.75278 7.24926 3.41699 6.91347 3.41699 6.49926V4.60571L2.92969 4.9475C2.59039 5.18473 2.1232 5.10213 1.88574 4.76293C1.64844 4.42362 1.73107 3.95548 2.07031 3.71801L3.73633 2.55199ZM13.5 4.08324C13.9141 4.08324 14.2498 4.41922 14.25 4.83324C14.2498 5.24731 13.9141 5.58324 13.5 5.58324H7.83301C7.41905 5.58307 7.08318 5.2472 7.08301 4.83324C7.08323 4.41933 7.41908 4.08342 7.83301 4.08324H13.5Z"
    fill="currentColor"
  />
</svg>

<svg xmlns="http://www.w3.org/2000/svg" width="16" height="16" fill="none" data-fui-icon="true" viewBox="0 0 16 16"><path fill="currentColor" d="M3.74 8.75c.9 0 1.817.653 1.818 1.676 0 .575-.289.997-.597 1.287-.148.14-.316.262-.482.37H5a.75.75 0 0 1 0 1.5H2.5a.75.75 0 0 1-.746-.674l-.004-.076c0-.577.345-.97.633-1.208.28-.231.641-.426.901-.573.298-.169.508-.298.649-.43.123-.117.125-.171.125-.196 0-.011-.004-.045-.054-.089a.4.4 0 0 0-.265-.088.8.8 0 0 0-.379.125 1.3 1.3 0 0 0-.18.127c-.002-.004-.04-.044-.513-.547l-.515-.547h.001l.002-.001.004-.004.01-.01.028-.025.092-.075c.075-.059.183-.136.315-.213.253-.148.655-.33 1.135-.33m9.76 1.666a.75.75 0 0 1 0 1.5H7.833a.75.75 0 0 1 0-1.5zM3.18 10.5a.75.75 0 0 1-1.028-1.092zm.556-7.948a.75.75 0 0 1 1.181.614V6.5a.75.75 0 0 1-1.5 0V4.606l-.487.341a.75.75 0 1 1-.86-1.229zM13.5 4.083a.75.75 0 0 1 0 1.5H7.833a.75.75 0 0 1 0-1.5z"/></svg>
